src/pos-icons/google-circles.svg

<svg height="24" viewBox="0 0 24 24" width="24" xmlns="http://www.w3.org/2000/svg"><path d="m16.66 15h.34c1 0 2-.2 2.87-.54-.7 4.27-4.4 7.54-8.87 7.54-5 0-9-4.03-9-9 0-4.47 3.27-8.17 7.54-8.87-.34.87-.54 1.87-.54 2.87v.34c-2.32.82-4 3.04-4 5.66a6 6 0 0 0 6 6c2.62 0 4.84-1.68 5.66-4m.34-5a3 3 0 0 0 3-3 3 3 0 0 0 -3-3 3 3 0 0 0 -3 3 3 3 0 0 0 3 3m0-9a6 6 0 0 1 6 6 6 6 0 0 1 -6 6 6 6 0 0 1 -6-6c0-3.32 2.69-6 6-6z"/></svg>

<?xml version="1.0" encoding="UTF-8"?><!DOCTYPE svg PUBLIC "-//W3C//DTD SVG 1.1//EN" "http://www.w3.org/Graphics/SVG/1.1/DTD/svg11.dtd"><svg xmlns="http://www.w3.org/2000/svg" xmlns:xlink="http://www.w3.org/1999/xlink" version="1.1" id="mdi-google-circles" width="24" height="24" viewBox="0 0 24 24"><path d="M16.66,15H17C18,15 19,14.8 19.87,14.46C19.17,18.73 15.47,22 11,22C6,22 2,17.97 2,13C2,8.53 5.27,4.83 9.54,4.13C9.2,5 9,6 9,7V7.34C6.68,8.16 5,10.38 5,13A6,6 0 0,0 11,19C13.62,19 15.84,17.32 16.66,15M17,10A3,3 0 0,0 20,7A3,3 0 0,0 17,4A3,3 0 0,0 14,7A3,3 0 0,0 17,10M17,1A6,6 0 0,1 23,7A6,6 0 0,1 17,13A6,6 0 0,1 11,7C11,3.68 13.69,1 17,1Z" /></svg>
